icons/op-sum-error-24.svg

<svg width="24" height="24" viewBox="0 0 24 24" fill="none" xmlns="http://www.w3.org/2000/svg">
<path fill-rule="evenodd" clip-rule="evenodd" d="M13.6236 5.02212C15.0773 3.65929 17.4414 3.65929 18.9097 5.02212C20.3634 6.38496 20.3634 8.61504 18.9097 9.97788C17.4414 11.3407 15.092 11.3407 13.6236 9.97788C12.1699 8.60128 12.1699 6.38496 13.6236 5.02212ZM16.7122 5.02212H15.934C15.7137 5.02212 15.6844 5.14602 15.6844 5.21485V5.28368L15.8459 8.02311C15.8753 8.21583 15.9634 8.25713 16.1249 8.25713H16.536C16.6975 8.25713 16.7856 8.21583 16.8003 8.00934L16.9618 5.36627L16.9765 5.28368V5.21485C16.9765 5.14602 16.9472 5.02212 16.7122 5.02212ZM15.5963 9.441C15.5963 9.81268 15.9193 10.1155 16.3305 10.1155C16.7269 10.1155 17.0646 9.81268 17.0646 9.441C17.0646 9.05556 16.7416 8.7527 16.3305 8.7527C15.9193 8.7527 15.5963 9.05556 15.5963 9.441Z" fill="black"/>
<path d="M4 6H11.7398C11.5635 6.46761 11.4673 6.9707 11.4667 7.49477H8.33029C7.96446 7.49477 7.63442 7.485 7.34017 7.46546C7.04592 7.4394 6.74769 7.40358 6.44548 7.35799C6.7795 7.50128 7.06977 7.65759 7.31631 7.82694C7.5708 7.98977 7.80938 8.17865 8.03206 8.39358L11.4796 11.9302C11.7261 12.1647 11.8852 12.3503 11.9568 12.4871C12.0283 12.6174 12.0681 12.7346 12.076 12.8388C12.076 12.9756 12.0403 13.1189 11.9687 13.2687C11.8971 13.4185 11.7341 13.6106 11.4796 13.8451L7.60261 17.7627C7.37198 17.9842 7.17316 18.16 7.00615 18.2903C6.8471 18.4141 6.68406 18.5183 6.51706 18.6029C6.81131 18.5704 7.08568 18.5476 7.34017 18.5345C7.59466 18.5215 7.83722 18.515 8.06785 18.515H16.8V20H4V19.2868C4 19.1435 4.03976 19.0035 4.11929 18.8667C4.20677 18.7234 4.31016 18.5997 4.42945 18.4955L10.0481 13.0147L4.2863 7.36776C4.20677 7.29612 4.13917 7.21145 4.0835 7.11375C4.02783 7.01605 4 6.91835 4 6.82066V6Z" fill="black"/>
</svg>

<svg xmlns="http://www.w3.org/2000/svg" width="24" height="24" viewBox="0 0 24 24"><path d="M13.624 5.022c1.453-1.363 3.817-1.363 5.286 0a3.362 3.362 0 0 1 0 4.956c-1.469 1.363-3.818 1.363-5.286 0-1.454-1.377-1.454-3.593 0-4.956Zm3.088 0h-.778c-.22 0-.25.124-.25.193v.069l.162 2.739c.029.193.117.234.279.234h.411c.162 0 .25-.041.264-.248l.162-2.643.014-.082v-.069c0-.069-.029-.193-.264-.193Zm-1.116 4.419c0 .372.323.675.734.675.397 0 .735-.303.735-.675 0-.385-.323-.688-.735-.688-.411 0-.734.303-.734.688Z"/><path d="M4 6h7.74a4.214 4.214 0 0 0-.273 1.495H8.33c-.366 0-.696-.01-.99-.03a14.415 14.415 0 0 1-.895-.107c.334.143.625.3.871.469.255.163.493.352.716.567l3.448 3.536c.246.235.405.42.477.557.071.13.111.248.119.352 0 .137-.036.28-.107.43-.072.149-.235.342-.489.576l-3.877 3.918c-.231.221-.43.397-.597.527a3.03 3.03 0 0 1-.489.313 13.646 13.646 0 0 1 1.551-.088H16.8V20H4v-.713c0-.144.04-.284.119-.42.088-.144.191-.267.31-.372l5.619-5.48-5.762-5.647a1.056 1.056 0 0 1-.203-.254A.596.596 0 0 1 4 6.821V6Z"/></svg>
